X: 02091
T: Delvine Side
C: Daniel Dow of Kirk Michael ca.1775
R: strathspey
B: RSCDS 2-9
B: "Originally Ours" p.8
B: Alexander McGlashan's 1780 collection p.30
N: The RSCDS booklet dates this to 1790, others claim it was written around 1775.
Z: 2006 John Chambers <jc:trillian.mit.edu>
M: C
L: 1/16
K: Edor
|: "Em"E3e dcBA   BE3 B3A | "Em"B3e       dcBA  "D"d3D       A3F  |\
   "Em"E3e dcBA   BE3 B3g |  "A"fa3       e3f  "Bm"d3B  "F#m"AF3  :|
[| "Em"BE3 B3A    B3E Be3 | "Em"BE3       B3A  "Bm"d3B  "F#m"AF3  |\
   "Em"BE3 B3A    B3E Bg3 |  "D"fa3 "C#/A"e3f  "Bm"d3B  "F#m"AF3  |]
[| "Em"BE3 B3A    B3E Be3 | "Em"BE3       B3A   "G"d3B "F#/D"AF3  |\
   "Em"E3F G3A "G"B3A Bg3 |  "D"fa3 "C#/A"e3f "B/G"d3F    "G"BAGF |]
